packages/atlas/src/components/_illustrations/svgs/joystream-logo-short.svg

<svg width="26" height="32" viewBox="0 0 26 32" fill="none" xmlns="http://www.w3.org/2000/svg">
<path d="M16.9601 0.0159912L19.8821 0.0229912L19.8461 13.699C19.8396 16.9005 18.6578 19.9883 16.5251 22.376C16.7851 21.249 16.9191 20.096 16.9211 18.938L16.9611 0.0159912H16.9601ZM7.56306 23.866C6.83932 24.7575 5.92819 25.4788 4.89434 25.9786C3.8605 26.4784 2.7293 26.7445 1.58105 26.758L2.46105 23.852L7.56306 23.866ZM9.35105 18.631V18.922C9.34942 19.8144 9.1945 20.7 8.89305 21.54L3.16305 21.524L4.03805 18.615L9.35105 18.631ZM22.2111 0.0299912H25.1211L25.1001 8.47999C25.0923 11.6822 23.9087 14.77 21.7741 17.157C22.0351 16.03 22.1681 14.877 22.1711 13.719L22.2101 0.0299912H22.2111Z" fill="#4038FF"/>
<path d="M14.64 0L14.59 18.93C14.5768 22.4027 13.1865 25.7282 10.7242 28.1771C8.26186 30.6259 4.92868 31.9979 1.456 31.992H0L0.878 29.084H1.462C4.16446 29.0909 6.75925 28.0253 8.67683 26.121C10.5944 24.2168 11.6781 21.6294 11.69 18.927L11.728 0H14.641H14.64Z" fill="#4038FF"/>
</svg>

<svg width="26" height="32" fill="none" xmlns="http://www.w3.org/2000/svg"><g clip-path="url(#a)" fill="#4038FF"><path d="m16.96.016 2.922.007-.036 13.676a13.065 13.065 0 0 1-3.321 8.677c.26-1.127.394-2.28.396-3.438l.04-18.922ZM7.563 23.866a7.823 7.823 0 0 1-5.982 2.892l.88-2.906 5.102.014ZM9.351 18.631v.291a7.793 7.793 0 0 1-.458 2.618l-5.73-.016.875-2.909 5.313.016ZM22.211.03h2.91L25.1 8.48a13.064 13.064 0 0 1-3.326 8.677c.261-1.127.394-2.28.397-3.438L22.21.03Z"/><path d="m14.64 0-.05 18.93A13.112 13.112 0 0 1 1.456 31.992H0l.878-2.908h.584A10.202 10.202 0 0 0 11.69 18.927L11.728 0h2.913Z"/></g><defs><clipPath id="a"><path fill="#fff" d="M0 0h25.122v32H0z"/></clipPath></defs></svg>
